usr/share/icons/biglinux-icons-material/scalable/devices/media-floppy.svg

<?xml version="1.0" encoding="UTF-8" standalone="no"?>
<svg
   width="24"
   height="24"
   version="1"
   id="svg25731"
   sodipodi:docname="media-floppy.svg"
   xml:space="preserve"
   inkscape:version="1.2.2 (b0a8486541, 2022-12-01)"
   xmlns:inkscape="http://www.inkscape.org/namespaces/inkscape"
   xmlns:sodipodi="http://sodipodi.sourceforge.net/DTD/sodipodi-0.dtd"
   xmlns="http://www.w3.org/2000/svg"
   xmlns:svg="http://www.w3.org/2000/svg"><defs
     id="defs25735"><radialGradient
       fx="0"
       fy="0"
       cx="0"
       cy="0"
       r="1"
       gradientUnits="userSpaceOnUse"
       gradientTransform="matrix(0,16.500002,-16.500002,0,8.999998,0.749999)"
       spreadMethod="pad"
       id="radialGradient12763-3"><stop
         style="stop-opacity:1;stop-color:#a4a4a4"
         offset="0"
         id="stop12759-6" /><stop
         style="stop-opacity:1;stop-color:#626262"
         offset="1"
         id="stop12761-7" /></radialGradient></defs><sodipodi:namedview
     id="namedview25733"
     pagecolor="#ffffff"
     bordercolor="#000000"
     borderopacity="0.25"
     inkscape:showpageshadow="2"
     inkscape:pageopacity="0.0"
     inkscape:pagecheckerboard="0"
     inkscape:deskcolor="#d1d1d1"
     showgrid="false"
     inkscape:zoom="3.3125"
     inkscape:cx="-11.773585"
     inkscape:cy="8.3018868"
     inkscape:window-width="2560"
     inkscape:window-height="1000"
     inkscape:window-x="1680"
     inkscape:window-y="0"
     inkscape:window-maximized="1"
     inkscape:current-layer="svg25731" /><g
     id="g12749-5"
     transform="matrix(1.3333333,0,0,1.3333333,-4.5225532e-4,-3.504174e-5)"
     style="fill:none"><g
       id="g12751-3"><g
         id="g12757-5"><path
           d="m 7.195,0.836 c 0.09,0 0.176,-0.012 0.258,-0.035 1.078,-0.071 2.156,-0.067 3.231,0.008 0.976,0.078 1.921,0.289 2.836,0.636 1.519,0.625 2.558,1.711 3.121,3.254 0.316,0.93 0.507,1.887 0.566,2.867 0.078,1.235 0.051,2.465 -0.086,3.696 -0.105,0.863 -0.328,1.691 -0.672,2.488 -0.637,1.383 -1.672,2.336 -3.101,2.859 C 12.191,17 11,17.207 9.773,17.227 8.398,17.301 7.035,17.195 5.684,16.918 3.203,16.367 1.668,14.852 1.09,12.375 0.844,11.262 0.73,10.133 0.754,8.992 0.727,7.777 0.855,6.582 1.141,5.402 1.75,3.09 3.219,1.656 5.547,1.102 6.09,0.969 6.641,0.879 7.195,0.836 Z"
           style="fill:url(#radialGradient12763-3);fill-rule:evenodd;stroke:none"
           id="path12765-6" /></g></g></g><rect
     transform="matrix(0,-1,-1,0,0,0)"
     x="-19.5"
     y="-19.5"
     width="15"
     height="15"
     rx="1.730769"
     ry="1.730769"
     fill="#4f4f4f"
     id="rect25868"
     style="stroke-width:0.288462;fill:#333333;fill-opacity:1" /><path
     d="M 9.6913117,5.0933995 A 0.71445977,0.71445977 0 0 0 8.9754592,5.8092521 V 9.7162653 A 0.71445977,0.71445977 0 0 0 9.6913117,10.432118 H 15.687388 A 0.71445977,0.71445977 0 0 0 16.403241,9.7162653 V 5.8092521 A 0.71445977,0.71445977 0 0 0 15.687388,5.0933995 Z M 13.617823,6.718227 h 1.392709 c 0.257187,0 0.464236,0.2070493 0.464236,0.4642365 v 1.8569454 c 0,0.2571867 -0.207049,0.464236 -0.464236,0.464236 h -1.392709 c -0.257187,0 -0.464236,-0.2070493 -0.464236,-0.464236 V 7.1824635 c 0,-0.2571872 0.207049,-0.4642365 0.464236,-0.4642365 z"
     fill="#d3d3d3"
     style="stroke-width:0.232118;paint-order:stroke fill markers"
     id="path25866" /><rect
     x="5.8804064"
     y="11.395951"
     width="11.956846"
     height="6.7139802"
     rx="0.72664571"
     ry="0.72664571"
     fill="#ffffff"
     id="rect25870"
     style="stroke-width:0.250434" /></svg>

<svg xmlns="http://www.w3.org/2000/svg" xml:space="preserve" width="24" height="24" version="1"><defs><radialGradient id="a" cx="0" cy="0" r="1" fx="0" fy="0" gradientTransform="matrix(0 16.5 -16.5 0 9 .75)" gradientUnits="userSpaceOnUse" spreadMethod="pad"><stop offset="0" style="stop-opacity:1;stop-color:#a4a4a4"/><stop offset="1" style="stop-opacity:1;stop-color:#626262"/></radialGradient></defs><g style="fill:none"><path d="M7.195.836c.09 0 .176-.012.258-.035a23.86 23.86 0 0 1 3.231.008 10.26 10.26 0 0 1 2.836.636c1.519.625 2.558 1.711 3.121 3.254.316.93.507 1.887.566 2.867a21.227 21.227 0 0 1-.086 3.696 8.976 8.976 0 0 1-.672 2.488c-.637 1.383-1.672 2.336-3.101 2.859a11.693 11.693 0 0 1-3.575.618 15.998 15.998 0 0 1-4.089-.309c-2.481-.551-4.016-2.066-4.594-4.543a14.244 14.244 0 0 1-.336-3.383c-.027-1.215.101-2.41.387-3.59.609-2.312 2.078-3.746 4.406-4.3A10.27 10.27 0 0 1 7.195.836Z" style="fill:url(#a);fill-rule:evenodd;stroke:none" transform="matrix(1.33333 0 0 1.33333 0 0)"/></g><rect width="15" height="15" x="-19.5" y="-19.5" fill="#4f4f4f" rx="1.731" ry="1.731" style="stroke-width:.288462;fill:#333;fill-opacity:1" transform="matrix(0 -1 -1 0 0 0)"/><path fill="#d3d3d3" d="M9.691 5.093a.714.714 0 0 0-.716.716v3.907a.714.714 0 0 0 .716.716h5.996a.714.714 0 0 0 .716-.716V5.81a.714.714 0 0 0-.716-.716Zm3.927 1.625h1.393c.257 0 .464.207.464.464V9.04a.463.463 0 0 1-.464.465h-1.393a.463.463 0 0 1-.464-.465V7.182c0-.257.207-.464.464-.464z" style="stroke-width:.232118;paint-order:stroke fill markers"/><rect width="11.957" height="6.714" x="5.88" y="11.396" fill="#fff" rx=".727" ry=".727" style="stroke-width:.250434"/></svg>
